images/icons/linkedin.svg

<svg width="20" height="20" viewBox="0 0 20 20" fill="none" xmlns="http://www.w3.org/2000/svg">
<g clip-path="url(#clip0)">
<path d="M19.9951 20V19.9992H20.0001V12.6642C20.0001 9.07587 19.2276 6.31171 15.0326 6.31171C13.0159 6.31171 11.6626 7.41837 11.1101 8.46754H11.0517V6.64671H7.07422V19.9992H11.2159V13.3875C11.2159 11.6467 11.5459 9.96337 13.7017 9.96337C15.8259 9.96337 15.8576 11.95 15.8576 13.4992V20H19.9951Z" fill="#AFB1B8"/>
<path d="M0.329956 6.64746H4.47662V20H0.329956V6.64746Z" fill="#AFB1B8"/>
<path d="M2.40167 0C1.07583 0 0 1.07583 0 2.40167C0 3.7275 1.07583 4.82583 2.40167 4.82583C3.7275 4.82583 4.80333 3.7275 4.80333 2.40167C4.8025 1.07583 3.72667 0 2.40167 0Z" fill="#AFB1B8"/>
</g>
<defs>
<clipPath id="clip0">
<rect width="20" height="20" fill="white"/>
</clipPath>
</defs>
</svg>

<svg width="20" height="20" fill="none" xmlns="http://www.w3.org/2000/svg"><g clip-path="url(#clip0)" fill="#AFB1B8"><path d="M19.995 20H20v-7.336c0-3.588-.772-6.352-4.967-6.352-2.017 0-3.37 1.106-3.923 2.156h-.058V6.647H7.074v13.352h4.142v-6.611c0-1.741.33-3.425 2.486-3.425 2.124 0 2.156 1.987 2.156 3.536V20h4.137zM.33 6.647h4.147V20H.33V6.647zM2.402 0A2.402 2.402 0 000 2.402c0 1.325 1.076 2.424 2.402 2.424 1.325 0 2.401-1.098 2.401-2.424A2.403 2.403 0 002.402 0z"/></g><defs><clipPath id="clip0"><path fill="#fff" d="M0 0h20v20H0z"/></clipPath></defs></svg>
